X: 83
T: Ave stella matutina
C: Gaspar van Weerbeke
%%abc-version 2.0
%%abcx-abcm2ps-target-version 5.9.1 (29 Sep 2008)
%%abc-creator hum2abc beta
%%abcx-conversion-date 2022/03/06 13:05:55
%%abc-copyright Copyright 2008, Pavanello, Agnese
%%abc-edited-by Mair-Gruber, Roland
%%humdrum-veritas 4245413345
%%humdrum-veritas-data 958464035
%%linebreak <none>
%%barnumbers 0
L: 1/4
M: 2/2
N: Derived from Gas0408-Ave_stella_matutina.krn
%%staves [1 2 3 4]
V: 1 clef=treble
V: 2 clef=treble-8
V: 3 clef=treble-8
V: 4 clef=bass
K: C
[V:1] A2AA | 
[V:2] z4 | 
[V:3] A3A | 
[V:4] z4 | 
[V:1] A2G2 | 
[V:2] z4 | 
[V:3] c2B2 | 
[V:4] z4 | 
[V:1] c2BB- | 
[V:2] z4 | 
[V:3] A2d2 | 
[V:4] z4 | 
[V:1] B/A/G/F/EA- | 
[V:2] z4 | 
[V:3] e2cd | 
[V:4] z4 | 
[V:1] A^GA2 | 
[V:2] z4 | 
[V:3] B2A2 | 
[V:4] z4 | 
[V:1] z4 | 
[V:2] A3A | 
[V:3] z4 | 
[V:4] A,,3A,, | 
[V:1] z4 | 
[V:2] A2G2 | 
[V:3] z4 | 
[V:4] C,2B,,2 | 
[V:1] z4 | 
[V:2] c2BB- | 
[V:3] z4 | 
[V:4] A,,2D,2 | 
[V:1] z4 | 
[V:2] B/A/G/F/EA- | 
[V:3] z4 | 
[V:4] E,2C,D, | 
[V:1] z4 | 
[V:2] A^GA2 | 
[V:3] z4 | 
[V:4] B,,2A,,2 | 
[V:1] E3E | 
[V:2] c3c | 
[V:3] A3A | 
[V:4] A,,3A,, | 
[V:1] G2AB- | 
[V:2] B2Ag- | 
[V:3] GBcd- | 
[V:4] E,2A,G,- | 
[V:1] BA2^G | 
[V:2] g/f/e2e | 
[V:3] dcB2 | 
[V:4] G,A,E,2 | 
[V:1] A4 | 
[V:2] e4 | 
[V:3] A4 | 
[V:4] A,,4 | 
[V:1] c3B | 
[V:2] z4 | 
[V:3] e3d | 
[V:4] z4 | 
[V:1] A2GA | 
[V:2] z4 | 
[V:3] c2Bc | 
[V:4] z4 | 
[V:1] GA>G^F/E/ | 
[V:2] z4 | 
[V:3] Bc>BA/G/ | 
[V:4] z4 | 
[V:1] ^F2G2 | 
[V:2] z4 | 
[V:3] A2G2 | 
[V:4] z4 | 
[V:1] z4 | 
[V:2] e3d | 
[V:3] z4 | 
[V:4] C,3D, | 
[V:1] z4 | 
[V:2] c2Bc | 
[V:3] z4 | 
[V:4] E,2D,E, | 
[V:1] z4 | 
[V:2] Bd>cB/A/ | 
[V:3] z4 | 
[V:4] D,F,>E,D,/C,/ | 
[V:1] z4 | 
[V:2] B2c2 | 
[V:3] z4 | 
[V:4] D,2C,2 | 
[V:1] G3G | 
[V:2] e3e | 
[V:3] c3c | 
[V:4] C,3C, | 
[V:1] A2Gc- | 
[V:2] f2eg- | 
[V:3] c2cc | 
[V:4] F,2C,2 | 
[V:1] cBc2 ||  
[V:2] gge2 ||  
[V:3] d2c2 ||  
[V:4] G,G,C,2 ||  
[V:1] [M:3/2]G4G2 | 
[V:2] [M:3/2]z6 | 
[V:3] [M:3/2]B4B2 | 
[V:4] [M:3/2]z6 | 
[V:1] A4G2 | 
[V:2] z6 | 
[V:3] c4B2 | 
[V:4] z6 | 
[V:1] F2E2D2- | 
[V:2] z6 | 
[V:3] A2G2F2- | 
[V:4] z6 | 
[V:1] D2E4 | 
[V:2] z6 | 
[V:3] F2E4 | 
[V:4] z6 | 
[V:1] z6 | 
[V:2] e4ee | 
[V:3] z6 | 
[V:4] G,4G,G, | 
[V:1] z6 | 
[V:2] f4e2 | 
[V:3] z6 | 
[V:4] A,4G,2 | 
[V:1] z6 | 
[V:2] d2c2B2- | 
[V:3] z6 | 
[V:4] F,2E,2D,2- | 
[V:1] z6 | 
[V:2] B2c4 | 
[V:3] z6 | 
[V:4] D,2C,4 | 
[V:1] G4G2 | 
[V:2] e4e2 | 
[V:3] c4c2 | 
[V:4] C,4C,2 | 
[V:1] A4G2 | 
[V:2] f4e2 | 
[V:3] c4c2- | 
[V:4] F,4C,2- | 
[V:1] c4B2 | 
[V:2] g4g2 | 
[V:3] c2d2d2 | 
[V:4] C,2G,2G,2 | 
[V:1] c6 | 
[V:2] e6 | 
[V:3] c6 | 
[V:4] C,6 | 
[V:1] E4E2 | 
[V:2] z6 | 
[V:3] c4c2 | 
[V:4] z6 | 
[V:1] E4G2 | 
[V:2] z6 | 
[V:3] c4B2 | 
[V:4] z6 | 
[V:1] A2G2c2- | 
[V:2] z6 | 
[V:3] c2B2A2- | 
[V:4] z6 | 
[V:1] c2B4 | 
[V:2] z6 | 
[V:3] A2G4 | 
[V:4] z6 | 
[V:1] z6 | 
[V:2] E4E2 | 
[V:3] z6 | 
[V:4] C,4C,2 | 
[V:1] z6 | 
[V:2] E4G2 | 
[V:3] z6 | 
[V:4] C,4B,,2 | 
[V:1] z6 | 
[V:2] A2G2c2- | 
[V:3] z6 | 
[V:4] C,2B,,2A,,2- | 
[V:1] z6 | 
[V:2] c2B4 | 
[V:3] z6 | 
[V:4] A,,2G,,4 | 
[V:1] c4c2 | 
[V:2] z6 | 
[V:3] e4e2 | 
[V:4] z6 | 
[V:1] d2>c2B2 | 
[V:2] z6 | 
[V:3] f2>e2d2 | 
[V:4] z6 | 
[V:1] A2A2^G2 | 
[V:2] z6 | 
[V:3] c2B2B2 | 
[V:4] z6 | 
[V:1] A6 | 
[V:2] z6 | 
[V:3] A6 | 
[V:4] z6 | 
[V:1] z6 | 
[V:2] c4c2 | 
[V:3] z6 | 
[V:4] E,4E,2 | 
[V:1] z6 | 
[V:2] d2>c2B2 | 
[V:3] z6 | 
[V:4] F,2>E,2D,2 | 
[V:1] z6 | 
[V:2] A2A2^G2 | 
[V:3] z6 | 
[V:4] C,2B,,2B,,2 | 
[V:1] z6 | 
[V:2] A2c3B | 
[V:3] z6 | 
[V:4] A,,2>B,,2C,2 | 
[V:1] z6 | 
[V:2] B2>A2GF | 
[V:3] z6 | 
[V:4] D,2E,4 | 
[V:1] z6 | 
[V:2] E2>F2G2 | 
[V:3] z6 | 
[V:4] C,2>D,2E,2 | 
[V:1] z6 | 
[V:2] A4^G2 | 
[V:3] z6 | 
[V:4] C,2B,,4 | 
[V:1] E4G2 | 
[V:2] A4z2 | 
[V:3] c4B2 | 
[V:4] A,,4z2 | 
[V:1] A4G2 | 
[V:2] z6 | 
[V:3] c4B2 | 
[V:4] z6 | 
[V:1] c2B2A2- | 
[V:2] z6 | 
[V:3] A2G2c2- | 
[V:4] z6 | 
[V:1] A2G4 | 
[V:2] z6 | 
[V:3] cde4 | 
[V:4] z6 | 
[V:1] z6 | 
[V:2] E4G2 | 
[V:3] z6 | 
[V:4] C,4B,,2 | 
[V:1] z6 | 
[V:2] A4G2 | 
[V:3] z6 | 
[V:4] C,4B,,2 | 
[V:1] z6 | 
[V:2] c2B2A2- | 
[V:3] z6 | 
[V:4] A,,2G,,2C,2- | 
[V:1] z6 | 
[V:2] A2G4 | 
[V:3] z6 | 
[V:4] C,D,E,4 | 
[V:1] z6 | 
[V:2] c4c2 | 
[V:3] z6 | 
[V:4] E,4E,2 | 
[V:1] z6 | 
[V:2] d2>c2B2 | 
[V:3] z6 | 
[V:4] F,2>E,2D,2 | 
[V:1] z6 | 
[V:2] A2A2^G2 | 
[V:3] z6 | 
[V:4] C,2B,,2B,,2 | 
[V:1] c4c2 | 
[V:2] A4z2 | 
[V:3] e4e2 | 
[V:4] A,,4A,2 | 
[V:1] d2>c2B2 | 
[V:2] A4B2 | 
[V:3] f2>e2d2 | 
[V:4] F,2D,2G,2 | 
[V:1] A2A2^G2 | 
[V:2] cde4 | 
[V:3] c2B2B2 | 
[V:4] A,2E,4 | 
[V:1] A2c3B | 
[V:2] c2f2e2 | 
[V:3] A2>B2c2 | 
[V:4] F,2>G,2A,2 | 
[V:1] B2>A2GF | 
[V:2] g4g2 | 
[V:3] d4cB | 
[V:4] G,2>F,2E,D, | 
[V:1] E2>F2G2 | 
[V:2] g2>f2e2 | 
[V:3] c4B2 | 
[V:4] C,2>D,2E,2 | 
[V:1] A4^G2 | 
[V:2] d2e4 | 
[V:3] A2B4 | 
[V:4] F,2E,4 | 
[V:1] [M:2/2]A2z2 | 
[V:2] [M:2/2]c2zc | 
[V:3] [M:2/2]A2z2 | 
[V:4] [M:2/2]A,,3E, | 
[V:1] z4 | 
[V:2] BA^G2 | 
[V:3] z4 | 
[V:4] D,C,B,,2 | 
[V:1] zcBA | 
[V:2] A2z2 | 
[V:3] zedc | 
[V:4] A,,2z2 | 
[V:1] ^G2A2 | 
[V:2] z2ze | 
[V:3] B2A2 | 
[V:4] z2zC, | 
[V:1] z4 | 
[V:2] dcB2 | 
[V:3] z4 | 
[V:4] B,,A,,^G,,2 | 
[V:1] zedc | 
[V:2] A2z2 | 
[V:3] zcBA | 
[V:4] A,,2z2 | 
[V:1] B2A2 | 
[V:2] z4 | 
[V:3] ^G2A2 | 
[V:4] z4 | 
[V:1] A4 | 
[V:2] e4 | 
[V:3] c4 | 
[V:4] A,,4 | 
[V:1] G2G2 | 
[V:2] e2e2 | 
[V:3] B2B2 | 
[V:4] E,2E,2 | 
[V:1] c4 | 
[V:2] g4 | 
[V:3] c4 | 
[V:4] C,4 | 
[V:1] B4 | 
[V:2] g4 | 
[V:3] d4 | 
[V:4] G,,4 | 
[V:1] E4 | 
[V:2] G4 | 
[V:3] c4 | 
[V:4] C,4 | 
[V:1] z4 | 
[V:2] c2BA | 
[V:3] z4 | 
[V:4] zE,D,C, | 
[V:1] z2zc | 
[V:2] ^G2A2 | 
[V:3] z2ze | 
[V:4] B,,2A,,2 | 
[V:1] BAG3/F/ | 
[V:2] Bce2- | 
[V:3] dcBc- | 
[V:4] G,A,E,2 | 
[V:1] EA2^G | 
[V:2] ede2 | 
[V:3] cAB2 | 
[V:4] C,F,E,2 | 
[V:1] Ac2B/A/ | 
[V:2] c>def | 
[V:3] A3c | 
[V:4] F,2zF, | 
[V:1] Gc2B- | 
[V:2] dcg2- | 
[V:3] BAed- | 
[V:4] G,A,E,G,- | 
[V:1] BA2^G | 
[V:2] ge3 | 
[V:3] dcB2 | 
[V:4] G,A,E,2 | 
[V:1] A4 |]  
[V:2] e4 |]  
[V:3] A4 |]  
[V:4] A,,4 |]  


